X: 1
T:Telephone -- Reel
M:2/4
L:1/16
R:reel
B:Ryan's Mammoth Collection
N:290
N:As performed by C. W. KNOWLTON.
Z:Contributed by Ray Davies,  ray:davies99.freeserve.co.uk
K:Gm
uD2|\
(DG)z^F G3A | BG2B (dc)BG | (CF)z F3G | AF2A (dc)AF |
(DG)z^F G3A | B(AB)c d(cd)e | f(gf)d c(BA)c | B(GA)(^F G2):|
|:ud2|\
(dg)z^f g3a | b(ag)(a b)(ag)a | (cf)zf f3g | a(gf)(g a)(gf)c |
(dg)z^f g3a | b(ag)f {e}d(^cd)(e | f)(gf)d c(BA)c | B(GA)(^F G2):|
